libs/ui/packages/crypto-icons/src/svg/BCC.svg

<svg width="24" height="24" viewBox="0 0 24 24" fill="none">
<path d="M5.51296 14.2318C5.50696 11.9728 7.09771 10.0768 9.37321 9.65003C9.56821 9.61403 9.6237 9.54878 9.61845 9.35828C9.60609 8.85111 9.60609 8.34371 9.61845 7.83653C9.6222 7.65428 9.56446 7.54553 9.4077 7.44353C8.86095 7.08728 8.63746 6.43928 8.83771 5.85653C8.93399 5.56168 9.12505 5.30693 9.38115 5.13195C9.63725 4.95696 9.94402 4.87156 10.2537 4.88903C10.8312 4.91603 11.36 5.34578 11.516 5.91653C11.6735 6.48953 11.4545 7.11278 10.946 7.43603C10.766 7.55003 10.7097 7.66478 10.7157 7.86878C10.7307 8.37578 10.7255 8.88278 10.7187 9.39053C10.7165 9.53753 10.7382 9.61628 10.913 9.63878C11.2452 9.68303 11.57 9.77228 11.8775 9.90428C11.993 9.95378 12.0552 9.92378 12.1325 9.83828C13.2087 8.65253 14.2887 7.46903 15.371 6.28853C15.4827 6.16703 15.4505 6.08378 15.3995 5.95853C15.1355 5.30753 15.29 4.60478 15.788 4.13978C16.2425 3.71603 16.994 3.59528 17.537 3.85853C18.176 4.16828 18.527 4.76228 18.4835 5.45978C18.425 6.39278 17.5175 7.09553 16.5965 6.90428C16.4097 6.86528 16.3017 6.91028 16.181 7.04378C15.1791 8.15109 14.1731 9.2546 13.163 10.3543C13.0407 10.487 13.0235 10.5583 13.1757 10.6903C14.8287 12.1318 15.2787 14.3038 14.3367 16.2823C14.2655 16.4323 14.2812 16.5178 14.3967 16.6273C14.672 16.889 14.9382 17.1598 15.2022 17.4335C15.3072 17.5423 15.4055 17.5708 15.5615 17.531C16.169 17.378 16.799 17.651 17.102 18.1783C17.2521 18.4392 17.3141 18.7416 17.2788 19.0406C17.2436 19.3395 17.1129 19.6192 16.9062 19.838C16.4907 20.2798 15.812 20.408 15.2847 20.144C14.7087 19.856 14.3907 19.2403 14.5272 18.608C14.567 18.4265 14.525 18.323 14.4035 18.2083C14.1798 17.9968 13.9629 17.7782 13.7532 17.5528C13.631 17.4208 13.5552 17.4185 13.4157 17.5498C11.9915 18.8773 10.34 19.2208 8.51746 18.5728C6.70546 17.93 5.51821 16.1683 5.51296 14.2325" fill="#F7931C"/>
</svg>

<svg width="24" height="24" viewBox="0 0 24 24" fill="none"><path fill="#f7931c" d="M5.513 14.232c-.006-2.26 1.585-4.155 3.86-4.582.195-.036.25-.101.245-.292a31 31 0 0 1 0-1.521c.004-.183-.054-.291-.21-.393-.547-.357-.77-1.005-.57-1.587a1.406 1.406 0 0 1 1.416-.968c.577.027 1.106.457 1.262 1.028a1.37 1.37 0 0 1-.57 1.519c-.18.114-.236.229-.23.433a35 35 0 0 1 .003 1.522c-.002.147.02.225.194.248.332.044.657.133.964.265.116.05.178.02.255-.066a957 957 0 0 1 3.239-3.55c.112-.121.08-.204.028-.33a1.62 1.62 0 0 1 .389-1.818c.454-.424 1.206-.545 1.749-.281.639.31.99.903.947 1.6-.059.934-.967 1.637-1.888 1.445-.186-.039-.294.006-.415.14a598 598 0 0 1-3.018 3.31c-.122.133-.14.204.013.336 1.653 1.442 2.103 3.614 1.16 5.592-.07.15-.055.236.06.345q.412.395.806.806c.105.11.204.138.36.098a1.389 1.389 0 0 1 1.344 2.307c-.415.442-1.094.57-1.621.306-.576-.288-.894-.904-.758-1.536.04-.181-.002-.285-.123-.4q-.336-.317-.65-.655c-.123-.132-.199-.134-.338-.003-1.424 1.327-3.076 1.67-4.899 1.023-1.812-.643-2.999-2.405-3.004-4.34"/></svg>
